public/img/icon/call-icon.svg

<svg width="25" height="25" viewBox="0 0 25 25" fill="none" xmlns="http://www.w3.org/2000/svg">
<path d="M18.3541 11.1976C17.9062 11.1976 17.552 10.833 17.552 10.3955C17.552 10.0101 17.1666 9.20801 16.5208 8.51009C15.8853 7.83301 15.1874 7.43717 14.6041 7.43717C14.1562 7.43717 13.802 7.07259 13.802 6.63509C13.802 6.19759 14.1666 5.83301 14.6041 5.83301C15.6458 5.83301 16.7395 6.39551 17.6978 7.40593C18.5937 8.35384 19.1666 9.53093 19.1666 10.3851C19.1666 10.833 18.802 11.1976 18.3541 11.1976Z" fill="#00FF97"/>
<path d="M22.1146 11.1981C21.6667 11.1981 21.3125 10.8335 21.3125 10.396C21.3125 6.69808 18.3021 3.69808 14.6146 3.69808C14.1667 3.69808 13.8125 3.3335 13.8125 2.896C13.8125 2.4585 14.1667 2.0835 14.6042 2.0835C19.1875 2.0835 22.9167 5.81266 22.9167 10.396C22.9167 10.8335 22.5521 11.1981 22.1146 11.1981Z" fill="#00FF97"/>
<path d="M12.2812 14.8022L8.87492 18.2085C8.49992 17.8752 8.13533 17.5314 7.78117 17.1772C6.70825 16.0939 5.7395 14.9585 4.87492 13.771C4.02075 12.5835 3.33325 11.396 2.83325 10.2189C2.33325 9.03141 2.08325 7.896 2.08325 6.81266C2.08325 6.10433 2.20825 5.42725 2.45825 4.80225C2.70825 4.16683 3.10409 3.5835 3.65617 3.06266C4.32284 2.40641 5.052 2.0835 5.82284 2.0835C6.1145 2.0835 6.40617 2.146 6.66659 2.271C6.93742 2.396 7.177 2.5835 7.3645 2.85433L9.78117 6.26058C9.96867 6.521 10.1041 6.76058 10.1978 6.98975C10.2916 7.2085 10.3437 7.42725 10.3437 7.62516C10.3437 7.87516 10.2708 8.12516 10.1249 8.36475C9.9895 8.60433 9.79158 8.85433 9.54158 9.10433L8.74992 9.92725C8.63533 10.0418 8.58325 10.1772 8.58325 10.3439C8.58325 10.4272 8.59367 10.5002 8.6145 10.5835C8.64575 10.6668 8.677 10.7293 8.69784 10.7918C8.88534 11.1356 9.20825 11.5835 9.66658 12.1252C10.1353 12.6668 10.6353 13.2189 11.177 13.771C11.552 14.1356 11.9166 14.4897 12.2812 14.8022Z" fill="#00FF97"/>
<path d="M22.8854 19.0937C22.8854 19.3854 22.8333 19.6875 22.7292 19.9792C22.6979 20.0625 22.6667 20.1458 22.625 20.2292C22.4479 20.6042 22.2188 20.9583 21.9167 21.2917C21.4063 21.8542 20.8438 22.2604 20.2083 22.5208C20.1979 22.5208 20.1875 22.5312 20.1771 22.5312C19.5625 22.7812 18.8958 22.9167 18.1771 22.9167C17.1146 22.9167 15.9792 22.6667 14.7812 22.1563C13.5833 21.6458 12.3854 20.9583 11.1979 20.0938C10.7917 19.7917 10.3854 19.4896 10 19.1667L13.4062 15.7604C13.6979 15.9792 13.9583 16.1458 14.1771 16.2604C14.2292 16.2812 14.2917 16.3125 14.3646 16.3437C14.4479 16.375 14.5312 16.3854 14.625 16.3854C14.8021 16.3854 14.9375 16.3229 15.0521 16.2083L15.8438 15.4271C16.1042 15.1667 16.3542 14.9688 16.5938 14.8438C16.8333 14.6979 17.0729 14.625 17.3333 14.625C17.5312 14.625 17.7396 14.6667 17.9688 14.7604C18.1979 14.8542 18.4375 14.9896 18.6979 15.1667L22.1458 17.6146C22.4167 17.8021 22.6042 18.0208 22.7188 18.2812C22.8229 18.5417 22.8854 18.8021 22.8854 19.0937Z" fill="#00FF97"/>
</svg>

<svg version="1.2" xmlns="http://www.w3.org/2000/svg" viewBox="0 0 25 25" width="25" height="25">
	<style>
		.s0 { fill: #3a92de } 
	</style>
	<path class="s0" d="m18.35 11.2c-0.44 0-0.8-0.37-0.8-0.8 0-0.39-0.38-1.19-1.03-1.89-0.63-0.68-1.33-1.07-1.92-1.07-0.44 0-0.8-0.37-0.8-0.8 0-0.44 0.37-0.81 0.8-0.81 1.05 0 2.14 0.57 3.1 1.58 0.89 0.94 1.47 2.12 1.47 2.98 0 0.44-0.37 0.81-0.82 0.81z"/>
	<path class="s0" d="m22.11 11.2c-0.44 0-0.8-0.37-0.8-0.8 0-3.7-3.01-6.7-6.7-6.7-0.44 0-0.8-0.37-0.8-0.8 0-0.44 0.36-0.82 0.79-0.82 4.59 0 8.32 3.73 8.32 8.32 0 0.43-0.37 0.8-0.81 0.8z"/>
	<path class="s0" d="m12.28 14.8l-3.41 3.41q-0.56-0.5-1.09-1.03-1.61-1.63-2.91-3.41-1.28-1.78-2.04-3.55-0.75-1.78-0.75-3.41 0-1.07 0.38-2.01 0.37-0.95 1.2-1.74 1-0.98 2.16-0.98 0.45 0 0.85 0.19 0.41 0.18 0.69 0.58l2.42 3.41q0.28 0.39 0.42 0.73 0.14 0.33 0.14 0.64 0 0.37-0.22 0.73-0.2 0.37-0.58 0.74l-0.79 0.83q-0.17 0.17-0.17 0.41 0 0.12 0.03 0.24 0.05 0.12 0.09 0.21 0.28 0.52 0.97 1.34 0.7 0.81 1.51 1.64 0.56 0.56 1.1 1.03z"/>
	<path class="s0" d="m22.89 19.09q0 0.45-0.16 0.89-0.05 0.12-0.11 0.25-0.26 0.56-0.7 1.06-0.76 0.84-1.71 1.23-0.02 0.01-0.03 0.01-0.92 0.38-2 0.39-1.6 0-3.4-0.76-1.8-0.77-3.58-2.07-0.62-0.44-1.2-0.92l3.41-3.41q0.44 0.33 0.77 0.5 0.08 0.03 0.18 0.08 0.13 0.05 0.26 0.05 0.27-0.01 0.43-0.18l0.79-0.78q0.39-0.4 0.75-0.59 0.36-0.22 0.74-0.21 0.3-0.01 0.64 0.13 0.34 0.14 0.73 0.41l3.45 2.44q0.4 0.28 0.57 0.67 0.16 0.38 0.17 0.81z"/>
</svg>
